empty/logo/light.svg

<svg width="145" height="18" viewBox="0 0 145 18" fill="none" xmlns="http://www.w3.org/2000/svg">
  <path d="M76.8455 18H74.0662L76.0248 13.5793L72.1077 4.77515H74.9056L77.1764 10.2659C77.2605 10.4692 77.5487 10.4688 77.6322 10.2653L79.8859 4.77515H82.7025L76.8455 18Z" fill="#0C0A09"/>
  <path d="M68.4037 14.1015V7.01346H66.5198V4.77512H68.4037V3.56269C68.4037 2.45596 68.7395 1.58549 69.411 0.951294C70.0825 0.317098 70.9343 0 71.9664 0C72.6006 0 73.1415 0.0683936 73.5892 0.205181V2.46217C73.2908 2.35026 72.9426 2.2943 72.5446 2.2943C71.9851 2.2943 71.5809 2.41865 71.3322 2.66735C71.0835 2.90362 70.9591 3.30777 70.9591 3.87979V4.77512H73.5892V7.01346H70.9591V14.1015H68.4037Z" fill="#0C0A09"/>
  <path d="M64.2336 3.24559C63.7984 3.24559 63.4191 3.09015 63.0958 2.77927C62.7725 2.45596 62.6108 2.07046 62.6108 1.6228C62.6108 1.17513 62.7725 0.795854 63.0958 0.484974C63.4191 0.161658 63.7984 0 64.2336 0C64.6937 0 65.0792 0.161658 65.3901 0.484974C65.7134 0.795854 65.8751 1.17513 65.8751 1.6228C65.8751 2.07046 65.7134 2.45596 65.3901 2.77927C65.0792 3.09015 64.6937 3.24559 64.2336 3.24559ZM62.9652 14.1015V4.77512H65.5207V14.1015H62.9652Z" fill="#0C0A09"/>
  <path d="M58.5156 14.1014V0.111816H61.0711V14.1014H58.5156Z" fill="#0C0A09"/>
  <path d="M55.6288 14.2134C54.5842 14.2134 53.7262 13.9274 53.0547 13.3554C52.3956 12.771 52.0661 11.9316 52.0661 10.8373V7.01346H50.1821V4.77512H52.0661V2.18237H54.6215V4.77512H57.2515V7.01346H54.6215V10.3337C54.6215 10.9057 54.7459 11.316 54.9946 11.5647C55.2433 11.801 55.6474 11.9191 56.207 11.9191C56.6049 11.9191 56.9531 11.8632 57.2515 11.7513V14.0083C56.8039 14.1451 56.2629 14.2134 55.6288 14.2134Z" fill="#0C0A09"/>
  <path d="M40.6177 14.1017V4.77525H43.1731V5.43633C43.1731 5.55783 43.3389 5.61183 43.4201 5.52139C43.989 4.88718 44.7958 4.57007 45.8405 4.57007C46.9596 4.57007 47.8363 4.94313 48.4705 5.68924C49.1171 6.42292 49.4405 7.4053 49.4405 8.63638V14.1017H46.885V9.0654C46.885 8.38146 46.742 7.85297 46.456 7.47991C46.17 7.09442 45.7659 6.90167 45.2436 6.90167C44.6218 6.90167 44.1182 7.12551 43.7327 7.57317C43.3596 8.02084 43.1731 8.67991 43.1731 9.55037V14.1017H40.6177Z" fill="#0C0A09"/>
  <path d="M37.4363 3.24559C37.001 3.24559 36.6218 3.09015 36.2985 2.77927C35.9751 2.45596 35.8135 2.07046 35.8135 1.6228C35.8135 1.17513 35.9751 0.795854 36.2985 0.484974C36.6218 0.161658 37.001 0 37.4363 0C37.8964 0 38.2819 0.161658 38.5927 0.484974C38.9161 0.795854 39.0777 1.17513 39.0777 1.6228C39.0777 2.07046 38.9161 2.45596 38.5927 2.77927C38.2819 3.09015 37.8964 3.24559 37.4363 3.24559ZM36.1679 14.1015V4.77512H38.7233V14.1015H36.1679Z" fill="#0C0A09"/>
  <path d="M31.8297 14.1017V9.12136C31.8297 7.64157 31.3447 6.90167 30.3747 6.90167C29.8151 6.90167 29.3675 7.11307 29.0317 7.53587C28.7084 7.95867 28.5343 8.58664 28.5094 9.4198V14.1017H25.954V9.12136C25.954 7.64157 25.469 6.90167 24.4991 6.90167C23.9271 6.90167 23.4732 7.12551 23.1374 7.57317C22.8017 8.02084 22.6338 8.67991 22.6338 9.55037V14.1017H20.0784V4.77525H22.6338V5.4434C22.6338 5.56427 22.7967 5.61771 22.8767 5.52708C23.4397 4.88907 24.1857 4.57007 25.1146 4.57007C26.341 4.57007 27.2657 5.07469 27.8887 6.08392C27.9408 6.16825 28.0683 6.16687 28.1202 6.08241C28.3891 5.64448 28.7613 5.29581 29.2369 5.03639C29.7841 4.72551 30.3374 4.57007 30.897 4.57007C32.0037 4.57007 32.8618 4.93691 33.4711 5.67059C34.0804 6.40426 34.3851 7.41152 34.3851 8.69234V14.1017H31.8297Z" fill="#0C0A09"/>
  <path d="M16.305 6.13856V1.08616C16.305 0.543984 15.8652 0.111816 15.3311 0.111816H10.281C9.48777 0.111816 8.70238 0.268962 7.97197 0.567549C7.24155 0.873994 6.57397 1.31402 6.01634 1.87977L5.97707 1.91906C5.2388 2.66552 4.71259 3.59271 4.44556 4.61419C4.92465 4.48847 5.41942 4.42561 5.91422 4.41775C7.23368 4.40204 8.5296 4.82635 9.58203 5.61996C10.5324 6.32715 11.2549 7.30148 11.6476 8.42511C12.056 9.56446 12.1031 10.806 11.7968 11.9767C12.81 11.7096 13.7446 11.1831 14.4907 10.4445L14.53 10.4052C15.0876 9.84733 15.5353 9.17944 15.8416 8.44869C16.1479 7.71793 16.2971 6.93218 16.2971 6.13856H16.305Z" fill="#18E299"/>
  <path d="M4.29481 6.05311C4.30264 4.50318 4.92076 3.01587 6.00834 1.9043L1.80665 6.1079C1.791 6.12356 1.77534 6.13139 1.7597 6.14704C0.734705 7.16468 0.116597 8.52675 0.0148805 9.96709C-0.0790116 11.3135 0.273076 12.6442 1.02421 13.7558C1.09586 13.8618 1.29026 13.8967 1.39981 13.795L3.97401 11.2274C4.77992 10.4211 5.0303 9.22343 4.64691 8.151C4.40436 7.48562 4.28699 6.77328 4.29481 6.05311Z" fill="#0C8C5E"/>
  <path d="M14.5056 10.4058C13.6997 11.1964 12.6904 11.7443 11.5949 11.987C10.4917 12.2297 9.34938 12.1592 8.28526 11.7835C8.28526 11.7835 8.27742 11.7835 8.2696 11.7835C7.19766 11.3999 6.00056 11.6504 5.19465 12.4489L2.62041 15.0164C2.51087 15.126 2.52651 15.3061 2.65953 15.3922C3.77059 16.1358 5.10076 16.4959 6.44654 16.402C7.88622 16.3002 9.23982 15.6818 10.2648 14.6563L10.3039 14.6172L14.5056 10.4136V10.4058Z" fill="#0C8C5E"/>
  <path d="M95.3447 6.81126L93.6124 7.11807C93.54 6.89648 93.4249 6.68555 93.2673 6.48526C93.1139 6.28498 92.9051 6.12092 92.6408 5.99307C92.3766 5.86523 92.0464 5.80131 91.6501 5.80131C91.1089 5.80131 90.6572 5.92276 90.295 6.16566C89.9328 6.4043 89.7516 6.71325 89.7516 7.09251C89.7516 7.42063 89.8731 7.68484 90.116 7.88512C90.3589 8.0854 90.7509 8.24947 91.2921 8.37731L92.8518 8.73526C93.7552 8.94407 94.4285 9.2658 94.8717 9.70046C95.3149 10.1351 95.5364 10.6998 95.5364 11.3944C95.5364 11.9824 95.366 12.5066 95.0251 12.9668C94.6884 13.4228 94.2176 13.7807 93.6124 14.0407C93.0116 14.3006 92.3149 14.4306 91.5222 14.4306C90.4228 14.4306 89.5258 14.1962 88.8312 13.7275C88.1366 13.2544 87.7104 12.5833 87.5528 11.714L89.4001 11.4327C89.5151 11.9142 89.7516 12.2786 90.1096 12.5257C90.4676 12.7686 90.9342 12.8901 91.5095 12.8901C92.1359 12.8901 92.6366 12.7601 93.0116 12.5002C93.3866 12.236 93.5741 11.9142 93.5741 11.535C93.5741 11.2282 93.459 10.9703 93.2289 10.7615C93.0031 10.5527 92.6558 10.3951 92.187 10.2885L90.5251 9.92418C89.6089 9.71538 88.9313 9.38299 88.4924 8.92702C88.0578 8.47106 87.8404 7.89364 87.8404 7.19478C87.8404 6.61523 88.0024 6.10813 88.3262 5.67347C88.6501 5.23881 89.0975 4.90004 89.6685 4.65714C90.2396 4.40998 90.8937 4.2864 91.6309 4.2864C92.692 4.2864 93.5272 4.51651 94.1366 4.97674C94.746 5.43271 95.1487 6.04421 95.3447 6.81126ZM101.861 4.41424V5.94833H96.498V4.41424H101.861ZM97.9362 2.06197H99.8474V11.3496C99.8474 11.7203 99.9028 11.9995 100.014 12.187C100.124 12.3702 100.267 12.4959 100.442 12.5641C100.621 12.628 100.815 12.66 101.024 12.66C101.177 12.66 101.311 12.6493 101.426 12.628C101.541 12.6067 101.631 12.5897 101.695 12.5769L102.04 14.1557C101.929 14.1983 101.771 14.2409 101.567 14.2836C101.362 14.3304 101.107 14.356 100.8 14.3603C100.297 14.3688 99.8283 14.2793 99.3936 14.0918C98.9589 13.9043 98.6074 13.6145 98.3389 13.2225C98.0704 12.8304 97.9362 12.3382 97.9362 11.7459V2.06197ZM106.472 14.4498C105.85 14.4498 105.288 14.3347 104.785 14.1046C104.282 13.8702 103.884 13.5314 103.59 13.0882C103.3 12.6451 103.155 12.1017 103.155 11.4583C103.155 10.9043 103.261 10.4483 103.474 10.0904C103.688 9.73242 103.975 9.44904 104.337 9.24023C104.7 9.03143 105.104 8.87376 105.552 8.76722C105.999 8.66069 106.455 8.57972 106.92 8.52432C107.508 8.45614 107.985 8.40075 108.352 8.35813C108.718 8.31126 108.984 8.23668 109.151 8.13441C109.317 8.03214 109.4 7.86594 109.4 7.63583V7.59109C109.4 7.03285 109.242 6.60032 108.927 6.2935C108.616 5.98668 108.151 5.83327 107.533 5.83327C106.89 5.83327 106.383 5.97603 106.012 6.26154C105.646 6.54279 105.392 6.856 105.251 7.20117L103.455 6.79208C103.668 6.19549 103.979 5.71396 104.389 5.34748C104.802 4.97674 105.277 4.70827 105.814 4.54208C106.351 4.37163 106.916 4.2864 107.508 4.2864C107.9 4.2864 108.315 4.33327 108.754 4.42702C109.197 4.51651 109.611 4.68271 109.994 4.9256C110.382 5.1685 110.7 5.5158 110.947 5.96751C111.194 6.41495 111.318 6.99663 111.318 7.71254V14.2324H109.451V12.8901H109.374C109.251 13.1373 109.065 13.3801 108.818 13.6188C108.571 13.8574 108.254 14.0556 107.866 14.2132C107.478 14.3709 107.014 14.4498 106.472 14.4498ZM106.888 12.9157C107.416 12.9157 107.868 12.8113 108.243 12.6025C108.622 12.3936 108.91 12.1209 109.106 11.7843C109.306 11.4434 109.406 11.079 109.406 10.6912V9.4256C109.338 9.49379 109.206 9.55771 109.01 9.61736C108.818 9.67276 108.599 9.72177 108.352 9.76438C108.104 9.80273 107.864 9.83896 107.629 9.87305C107.395 9.90288 107.199 9.92844 107.041 9.94975C106.67 9.99663 106.332 10.0755 106.025 10.1863C105.722 10.2971 105.479 10.4569 105.296 10.6657C105.117 10.8702 105.028 11.1429 105.028 11.4838C105.028 11.9569 105.202 12.3148 105.552 12.5577C105.901 12.7963 106.347 12.9157 106.888 12.9157ZM113.503 14.2324V4.41424H115.35V5.9739H115.453C115.632 5.44549 115.947 5.03001 116.399 4.72745C116.855 4.42063 117.37 4.26722 117.946 4.26722C118.065 4.26722 118.206 4.27148 118.367 4.28001C118.534 4.28853 118.664 4.29918 118.757 4.31197V6.14009C118.681 6.11879 118.544 6.09535 118.348 6.06978C118.152 6.03995 117.956 6.02504 117.76 6.02504C117.309 6.02504 116.906 6.12092 116.552 6.31268C116.203 6.50018 115.926 6.76225 115.721 7.0989C115.517 7.43129 115.414 7.81055 115.414 8.23668V14.2324H113.503ZM125.215 4.41424V5.94833H119.852V4.41424H125.215ZM121.29 2.06197H123.201V11.3496C123.201 11.7203 123.256 11.9995 123.367 12.187C123.478 12.3702 123.621 12.4959 123.795 12.5641C123.974 12.628 124.168 12.66 124.377 12.66C124.531 12.66 124.665 12.6493 124.78 12.628C124.895 12.6067 124.984 12.5897 125.048 12.5769L125.393 14.1557C125.283 14.1983 125.125 14.2409 124.92 14.2836C124.716 14.3304 124.46 14.356 124.153 14.3603C123.651 14.3688 123.182 14.2793 122.747 14.0918C122.313 13.9043 121.961 13.6145 121.693 13.2225C121.424 12.8304 121.29 12.3382 121.29 11.7459V2.06197ZM131.095 14.4306C130.127 14.4306 129.294 14.2239 128.595 13.8105C127.901 13.3929 127.364 12.807 126.985 12.0527C126.61 11.2942 126.422 10.4057 126.422 9.38725C126.422 8.38157 126.61 7.49521 126.985 6.72816C127.364 5.96111 127.892 5.36239 128.57 4.932C129.252 4.5016 130.049 4.2864 130.961 4.2864C131.514 4.2864 132.051 4.37802 132.571 4.56126C133.091 4.7445 133.558 5.03214 133.971 5.42418C134.385 5.81623 134.711 6.32546 134.949 6.95188C135.188 7.57404 135.307 8.33043 135.307 9.22106V9.89862H127.502V8.4668H133.434C133.434 7.96396 133.332 7.51864 133.127 7.13086C132.923 6.73881 132.635 6.42986 132.264 6.20401C131.898 5.97816 131.468 5.86523 130.973 5.86523C130.436 5.86523 129.968 5.99734 129.567 6.26154C129.171 6.52148 128.864 6.86239 128.647 7.28427C128.434 7.70188 128.327 8.15572 128.327 8.64577V9.76438C128.327 10.4206 128.442 10.9789 128.672 11.4391C128.907 11.8993 129.233 12.2509 129.65 12.4938C130.068 12.7324 130.556 12.8517 131.114 12.8517C131.476 12.8517 131.806 12.8006 132.105 12.6983C132.403 12.5918 132.661 12.4341 132.878 12.2253C133.095 12.0165 133.262 11.7587 133.377 11.4519L135.186 11.7779C135.041 12.3105 134.781 12.7772 134.406 13.1777C134.035 13.574 133.568 13.883 133.006 14.1046C132.448 14.3219 131.811 14.4306 131.095 14.4306ZM137.068 14.2324V4.41424H138.915V5.9739H139.017C139.196 5.44549 139.512 5.03001 139.963 4.72745C140.419 4.42063 140.935 4.26722 141.51 4.26722C141.629 4.26722 141.77 4.27148 141.932 4.28001C142.098 4.28853 142.228 4.29918 142.322 4.31197V6.14009C142.245 6.11879 142.109 6.09535 141.913 6.06978C141.717 6.03995 141.521 6.02504 141.325 6.02504C140.873 6.02504 140.47 6.12092 140.117 6.31268C139.767 6.50018 139.49 6.76225 139.286 7.0989C139.081 7.43129 138.979 7.81055 138.979 8.23668V14.2324H137.068Z" fill="#78716C"/>
</svg>

<?xml version="1.0" encoding="UTF-8"?>
<svg id="Layer_1" xmlns="http://www.w3.org/2000/svg" version="1.1" viewBox="0 0 142.32 18">
  <!-- Generator: Adobe Illustrator 30.5.0, SVG Export Plug-In . SVG Version: 2.1.4 Build 64)  -->
  <path d="M76.85,18h-2.78l1.96-4.42-3.92-8.8h2.8l2.27,5.49c.08.2.37.2.46,0l2.25-5.49h2.82l-5.86,13.22Z" fill="#0c0a09"/>
  <path d="M68.4,14.1v-7.09h-1.88v-2.24h1.88v-1.21c0-1.11.34-1.98,1.01-2.61.67-.63,1.52-.95,2.56-.95.63,0,1.18.07,1.62.21v2.26c-.3-.11-.65-.17-1.04-.17-.56,0-.96.12-1.21.37-.25.24-.37.64-.37,1.21v.9h2.63v2.24h-2.63v7.09h-2.56Z" fill="#0c0a09"/>
  <path d="M64.23,3.25c-.44,0-.81-.16-1.14-.47-.32-.32-.48-.71-.48-1.16s.16-.83.48-1.14c.32-.32.7-.48,1.14-.48.46,0,.85.16,1.16.48.32.31.49.69.49,1.14s-.16.83-.49,1.16c-.31.31-.7.47-1.16.47ZM62.97,14.1V4.78h2.56v9.33h-2.56Z" fill="#0c0a09"/>
  <path d="M58.52,14.1V.11h2.56v13.99h-2.56Z" fill="#0c0a09"/>
  <path d="M55.63,14.21c-1.04,0-1.9-.29-2.57-.86-.66-.58-.99-1.42-.99-2.52v-3.82h-1.88v-2.24h1.88v-2.59h2.56v2.59h2.63v2.24h-2.63v3.32c0,.57.12.98.37,1.23.25.24.65.35,1.21.35.4,0,.75-.06,1.04-.17v2.26c-.45.14-.99.21-1.62.21Z" fill="#0c0a09"/>
  <path d="M40.62,14.1V4.78h2.56v.66c0,.12.17.18.25.09.57-.63,1.38-.95,2.42-.95,1.12,0,2,.37,2.63,1.12.65.73.97,1.72.97,2.95v5.47h-2.56v-5.04c0-.68-.14-1.21-.43-1.59-.29-.39-.69-.58-1.21-.58-.62,0-1.13.22-1.51.67-.37.45-.56,1.11-.56,1.98v4.55h-2.56Z" fill="#0c0a09"/>
  <path d="M37.44,3.25c-.44,0-.81-.16-1.14-.47-.32-.32-.49-.71-.49-1.16s.16-.83.49-1.14c.32-.32.7-.48,1.14-.48.46,0,.85.16,1.16.48.32.31.49.69.49,1.14s-.16.83-.49,1.16c-.31.31-.7.47-1.16.47ZM36.17,14.1V4.78h2.56v9.33h-2.56Z" fill="#0c0a09"/>
  <path d="M31.83,14.1v-4.98c0-1.48-.49-2.22-1.45-2.22-.56,0-1.01.21-1.34.63-.32.42-.5,1.05-.52,1.88v4.68h-2.56v-4.98c0-1.48-.49-2.22-1.45-2.22-.57,0-1.03.22-1.36.67-.34.45-.5,1.11-.5,1.98v4.55h-2.56V4.78h2.56v.67c0,.12.16.17.24.08.56-.64,1.31-.96,2.24-.96,1.23,0,2.15.5,2.77,1.51.05.08.18.08.23,0,.27-.44.64-.79,1.12-1.05.55-.31,1.1-.47,1.66-.47,1.11,0,1.96.37,2.57,1.1.61.73.91,1.74.91,3.02v5.41h-2.56Z" fill="#0c0a09"/>
  <path d="M16.31,6.14V1.09c0-.54-.44-.97-.97-.97h-5.05c-.79,0-1.58.16-2.31.46-.73.31-1.4.75-1.96,1.31l-.04.04c-.74.75-1.26,1.67-1.53,2.7.48-.13.97-.19,1.47-.2,1.32-.02,2.62.41,3.67,1.2.95.71,1.67,1.68,2.07,2.81.41,1.14.46,2.38.15,3.55,1.01-.27,1.95-.79,2.69-1.53l.04-.04c.56-.56,1.01-1.23,1.31-1.96.31-.73.46-1.52.46-2.31h0Z" fill="#18e299"/>
  <path d="M4.29,6.05c0-1.55.63-3.04,1.71-4.15L1.81,6.11s-.03.02-.05.04C.73,7.16.12,8.53.01,9.97c-.09,1.35.26,2.68,1.01,3.79.07.11.27.14.38.04l2.57-2.57c.81-.81,1.06-2,.67-3.08-.24-.67-.36-1.38-.35-2.1Z" fill="#0c8c5e"/>
  <path d="M14.51,10.41c-.81.79-1.82,1.34-2.91,1.58-1.1.24-2.25.17-3.31-.2h-.02c-1.07-.38-2.27-.13-3.07.67l-2.57,2.57c-.11.11-.09.29.04.38,1.11.74,2.44,1.1,3.79,1.01,1.44-.1,2.79-.72,3.82-1.75l.04-.04,4.2-4.2h0Z" fill="#0c8c5e"/>
  <path d="M95.34,6.81l-1.73.31c-.07-.22-.19-.43-.35-.63-.15-.2-.36-.36-.63-.49-.26-.13-.59-.19-.99-.19-.54,0-.99.12-1.36.36-.36.24-.54.55-.54.93,0,.33.12.59.36.79.24.2.63.36,1.18.49l1.56.36c.9.21,1.58.53,2.02.97.44.43.66,1,.66,1.69,0,.59-.17,1.11-.51,1.57-.34.46-.81.81-1.41,1.07-.6.26-1.3.39-2.09.39-1.1,0-2-.23-2.69-.7-.69-.47-1.12-1.14-1.28-2.01l1.85-.28c.11.48.35.85.71,1.09.36.24.82.36,1.4.36.63,0,1.13-.13,1.5-.39.38-.26.56-.59.56-.97,0-.31-.12-.56-.35-.77-.23-.21-.57-.37-1.04-.47l-1.66-.36c-.92-.21-1.59-.54-2.03-1-.43-.46-.65-1.03-.65-1.73,0-.58.16-1.09.49-1.52.32-.43.77-.77,1.34-1.02.57-.25,1.23-.37,1.96-.37,1.06,0,1.9.23,2.51.69.61.46,1.01,1.07,1.21,1.83ZM101.86,4.41v1.53h-5.36v-1.53h5.36ZM97.94,2.06h1.91v9.29c0,.37.06.65.17.84.11.18.25.31.43.38.18.06.37.1.58.1.15,0,.29-.01.4-.03.11-.02.2-.04.27-.05l.35,1.58c-.11.04-.27.09-.47.13-.21.05-.46.07-.77.08-.5,0-.97-.08-1.41-.27s-.79-.48-1.05-.87c-.27-.39-.4-.88-.4-1.48V2.06ZM106.47,14.45c-.62,0-1.18-.12-1.69-.35-.5-.23-.9-.57-1.2-1.02-.29-.44-.43-.99-.43-1.63,0-.55.11-1.01.32-1.37.21-.36.5-.64.86-.85.36-.21.77-.37,1.22-.47.45-.11.9-.19,1.37-.24.59-.07,1.07-.12,1.43-.17.37-.05.63-.12.8-.22.17-.1.25-.27.25-.5v-.04c0-.56-.16-.99-.47-1.3-.31-.31-.78-.46-1.39-.46s-1.15.14-1.52.43c-.37.28-.62.59-.76.94l-1.8-.41c.21-.6.52-1.08.93-1.44.41-.37.89-.64,1.43-.81.54-.17,1.1-.26,1.69-.26.39,0,.81.05,1.25.14.44.09.86.26,1.24.5.39.24.71.59.95,1.04.25.45.37,1.03.37,1.75v6.52h-1.87v-1.34h-.08c-.12.25-.31.49-.56.73-.25.24-.56.44-.95.59-.39.16-.85.24-1.39.24ZM106.89,12.92c.53,0,.98-.1,1.35-.31.38-.21.67-.48.86-.82.2-.34.3-.71.3-1.09v-1.27c-.07.07-.2.13-.4.19-.19.06-.41.1-.66.15-.25.04-.49.07-.72.11-.23.03-.43.06-.59.08-.37.05-.71.13-1.02.24-.3.11-.55.27-.73.48-.18.2-.27.48-.27.82,0,.47.17.83.52,1.07.35.24.79.36,1.34.36ZM113.5,14.23V4.41h1.85v1.56h.1c.18-.53.49-.94.95-1.25.46-.31.97-.46,1.55-.46.12,0,.26,0,.42.01.17,0,.3.02.39.03v1.83c-.08-.02-.21-.04-.41-.07-.2-.03-.39-.04-.59-.04-.45,0-.85.1-1.21.29-.35.19-.63.45-.83.79-.2.33-.31.71-.31,1.14v6h-1.91ZM125.21,4.41v1.53h-5.36v-1.53h5.36ZM121.29,2.06h1.91v9.29c0,.37.06.65.17.84.11.18.25.31.43.38.18.06.37.1.58.1.15,0,.29-.01.4-.03.11-.02.2-.04.27-.05l.35,1.58c-.11.04-.27.09-.47.13-.2.05-.46.07-.77.08-.5,0-.97-.08-1.41-.27-.43-.19-.79-.48-1.05-.87-.27-.39-.4-.88-.4-1.48V2.06ZM131.1,14.43c-.97,0-1.8-.21-2.5-.62-.69-.42-1.23-1-1.61-1.76-.38-.76-.56-1.65-.56-2.67s.19-1.89.56-2.66c.38-.77.91-1.37,1.59-1.8.68-.43,1.48-.65,2.39-.65.55,0,1.09.09,1.61.27.52.18.99.47,1.4.86.41.39.74.9.98,1.53.24.62.36,1.38.36,2.27v.68h-7.81v-1.43h5.93c0-.5-.1-.95-.31-1.34-.2-.39-.49-.7-.86-.93-.37-.23-.8-.34-1.29-.34-.54,0-1.01.13-1.41.4-.4.26-.7.6-.92,1.02-.21.42-.32.87-.32,1.36v1.12c0,.66.12,1.21.35,1.67.24.46.56.81.98,1.05.42.24.91.36,1.46.36.36,0,.69-.05.99-.15.3-.11.56-.26.77-.47.22-.21.38-.47.5-.77l1.81.33c-.15.53-.4,1-.78,1.4-.37.4-.84.71-1.4.93-.56.22-1.19.33-1.91.33ZM137.07,14.23V4.41h1.85v1.56h.1c.18-.53.49-.94.95-1.25.46-.31.97-.46,1.55-.46.12,0,.26,0,.42.01.17,0,.3.02.39.03v1.83c-.08-.02-.21-.04-.41-.07-.2-.03-.39-.04-.59-.04-.45,0-.85.1-1.21.29-.35.19-.63.45-.83.79-.21.33-.31.71-.31,1.14v6h-1.91Z" fill="#78716c"/>
</svg>
